icons/.local/share/icons/Tela/16/panel/audio-volume-muted-blocking.svg

<svg width="16" height="16" version="1.1" xmlns="http://www.w3.org/2000/svg">
 <defs>
  <style id="current-color-scheme" type="text/css">.ColorScheme-Text { color:#dfdfdf; } .ColorScheme-Highlight { color:#FF5252; }</style>
 </defs>
 <g class="ColorScheme-Highlight" fill="currentColor">
  <path d="m10 5v6c1.1009-0.59686 1.7876-1.7477 1.79-3 0.001973-1.2535-0.68593-2.4064-1.79-3z"/>
  <path d="m8 1-4 4h-3v6h3l4 4v-11.172zm-2 4.8281v4.3418l-1-0.99805-0.16992-0.17188h-1.8301v-2h1.8301l0.16992-0.17188z"/>
  <path d="m10 1v1.5c2.32 0.74 4 2.93 4 5.5s-1.68 4.76-4 5.5v1.5c3.15-0.78 5.5-3.6 5.5-7s-2.35-6.22-5.5-7z"/>
 </g>
</svg>

<svg xmlns="http://www.w3.org/2000/svg" width="16" height="16" version="1.1">
 <defs>
  <style id="current-color-scheme" type="text/css">
   .ColorScheme-Text { color:#dfdfdf; } .ColorScheme-Highlight { color:#FF5252; }
  </style>
 </defs>
 <path style="fill:currentColor" class="ColorScheme-Highlight" d="M 8,1 4,5 H 1 V 11 H 4 L 8,15 Z M 10,1 V 2.5 C 12.32,3.24 14,5.43 14,8 14,10.57 12.32,12.76 10,13.5 V 15 C 13.15,14.22 15.5,11.4 15.5,8 15.5,4.6 13.15,1.78 10,1 Z M 10,5 V 11 C 11.06,10.42 11.789,9.3 11.789,8 11.789,6.7 11.07,5.58 10,5 Z"/>
</svg>
